src/lib/packages/icons/src/assets/line/location-pin-eye.svg

<svg width="24" height="24" viewBox="0 0 24 24" fill="none" xmlns="http://www.w3.org/2000/svg">
<path d="M12 2.25C7.175 2.25 3.25 6.175 3.25 11C3.25 16.118 7.94699 19.2199 11.055 21.2729L11.584 21.624C11.71 21.708 11.855 21.75 12 21.75C12.145 21.75 12.29 21.708 12.416 21.624L12.945 21.2729C16.053 19.2199 20.75 16.118 20.75 11C20.75 6.175 16.825 2.25 12 2.25ZM12.119 20.021L12 20.1001L11.881 20.021C8.87098 18.033 4.75 15.311 4.75 11C4.75 7.002 8.002 3.75 12 3.75C15.998 3.75 19.25 7.002 19.25 11C19.25 15.311 15.128 18.034 12.119 20.021ZM12 7.125C9.582 7.125 8.16599 8.89901 7.53699 9.95801C7.15399 10.601 7.15399 11.4 7.53699 12.043C8.16599 13.101 9.582 14.876 12 14.876C14.418 14.876 15.834 13.102 16.463 12.043C16.846 11.4 16.846 10.601 16.463 9.95801C15.834 8.89901 14.418 7.125 12 7.125ZM15.174 11.2759C14.708 12.0599 13.675 13.375 12 13.375C10.325 13.375 9.29199 12.0599 8.82599 11.2759C8.72499 11.1059 8.72499 10.8951 8.82599 10.7241C9.29199 9.94012 10.325 8.625 12 8.625C13.675 8.625 14.708 9.94012 15.174 10.7241C15.275 10.8951 15.275 11.1049 15.174 11.2759ZM13.27 11C13.27 11.69 12.71 12.25 12.02 12.25C11.33 12.25 10.765 11.69 10.765 11C10.765 10.31 11.32 9.75 12.01 9.75H12.02C12.71 9.75 13.27 10.31 13.27 11Z" fill="currentColor"/>
</svg>

<svg xmlns="http://www.w3.org/2000/svg" width="24" height="24" fill="none"><path fill="currentColor" d="M12 2.25c-4.825 0-8.75 3.925-8.75 8.75 0 5.118 4.697 8.22 7.805 10.273l.529.351a.75.75 0 0 0 .832 0l.529-.351C16.053 19.22 20.75 16.118 20.75 11c0-4.825-3.925-8.75-8.75-8.75Zm.119 17.771-.119.08-.119-.08C8.871 18.033 4.75 15.311 4.75 11c0-3.998 3.252-7.25 7.25-7.25s7.25 3.252 7.25 7.25c0 4.311-4.122 7.034-7.131 9.021ZM12 7.125c-2.418 0-3.834 1.774-4.463 2.833a2.035 2.035 0 0 0 0 2.085c.629 1.058 2.045 2.833 4.463 2.833s3.834-1.774 4.463-2.833a2.035 2.035 0 0 0 0-2.085C15.834 8.899 14.418 7.125 12 7.125Zm3.174 4.15c-.466.785-1.499 2.1-3.174 2.1-1.675 0-2.708-1.315-3.174-2.1a.54.54 0 0 1 0-.55c.466-.785 1.499-2.1 3.174-2.1 1.675 0 2.708 1.315 3.174 2.1a.54.54 0 0 1 0 .55ZM13.27 11c0 .69-.56 1.25-1.25 1.25s-1.255-.56-1.255-1.25.555-1.25 1.245-1.25h.01c.69 0 1.25.56 1.25 1.25Z"/></svg>
